X: 1
T: Last Night's Fun
R: reel
M: 4/4
L: 1/8
%Z: Modified by Megan Ward    
K: Dmaj
AD~ED A3B|ADFD EFGB|AD~ED A2Bd|egfe dB~B2|
AD~ED A3B|ADFD EFGB|AD~ED A2Bd|egfe dBAB|
df~f2 af~f2|defd egfe|df~f2 af~f2|egfe dBAB|
df~f2 af~f2|defd e2fg|afbf afeg|fedc BcdB|
